static/logos/lattice-wordmark-color.svg

<svg width="124" height="23" viewBox="0 0 124 23" fill="none" xmlns="http://www.w3.org/2000/svg">
<g clip-path="url(#clip0_1_2232)">
<path fill-rule="evenodd" clip-rule="evenodd" d="M9.57827 16.4224L4.08247 10.9014C3.14861 9.96321 1.63454 9.96321 0.700389 10.9014C-0.233463 11.8395 -0.233463 13.3605 0.700389 14.2989L7.88723 21.5188C8.82108 22.4569 10.3355 22.4569 11.2693 21.5188L18.0338 14.723L14.652 11.3254L9.57827 16.4224Z" fill="#16B8A2"/>
<path fill-rule="evenodd" clip-rule="evenodd" d="M30.29 5.80562L19.722 16.4221L9.15278 5.80442C8.21863 4.86598 6.70455 4.86598 5.7707 5.80442C4.83685 6.74256 4.83685 8.26358 5.7707 9.20202L18.0309 21.5185C18.9648 22.4567 20.4789 22.4567 21.413 21.5185L33.6721 9.20322C34.6059 8.26478 34.6059 6.74376 33.6721 5.80562C32.7379 4.86748 31.2238 4.86748 30.29 5.80562Z" fill="#FFB41F"/>
<path fill-rule="evenodd" clip-rule="evenodd" d="M38.7503 14.2999L31.5646 21.5185C30.6308 22.4567 29.1167 22.4567 28.1828 21.5185L10.8489 4.10504C9.91496 3.1669 9.91496 1.64588 10.8489 0.707736C11.783 -0.230703 13.2971 -0.230703 14.2309 0.707736L29.8736 16.4221L35.3682 10.9023C36.3023 9.9642 37.8164 9.9642 38.7503 10.9023C39.6841 11.8408 39.6841 13.3618 38.7503 14.2999Z" fill="#F56358"/>
<path fill-rule="evenodd" clip-rule="evenodd" d="M28.5984 0.708975C27.6645 -0.229164 26.1505 -0.229164 25.2163 0.708975L14.6484 11.3254L18.0302 14.723L28.5984 4.10657C29.5323 3.16813 29.5323 1.64711 28.5984 0.708975Z" fill="#16B8A2"/>
<path fill-rule="evenodd" clip-rule="evenodd" d="M51.8314 2.36813H48.8906V19.7223H59.6658V17.1015H51.8314V2.36813ZM66.0305 7.58618C67.8186 7.58618 69.0184 8.31812 69.6772 9.21535L69.8183 7.82229H72.3592V19.7223H69.8183L69.6772 18.3293C69.0184 19.2265 67.8186 19.9584 66.0305 19.9584C62.8073 19.9584 60.6194 17.3376 60.6194 13.7723C60.6194 10.1834 62.8073 7.58618 66.0305 7.58618ZM66.6422 10.089C64.8071 10.089 63.4896 11.5293 63.4896 13.7723C63.4896 16.0154 64.8071 17.4557 66.6422 17.4557C68.0538 17.4557 68.9008 16.7001 69.536 15.6848V11.8598C68.9008 10.8446 68.0538 10.089 66.6422 10.089ZM79.4768 3.83201H76.6536V7.82229H74.4185V10.2307H76.6536V15.5196C76.6536 18.4001 78.371 19.9584 81.0766 19.9584C82.2529 19.9584 83.1234 19.6279 83.7116 19.2501L82.9587 17.0307C82.6058 17.2432 82.0882 17.4084 81.3354 17.4084C80.2296 17.4084 79.4768 16.7001 79.4768 15.4959V10.2307H83.0528V7.82229H79.4768V3.83201ZM89.2058 3.83201H86.3826V7.82229H84.1475V10.2307H86.3826V15.5196C86.3826 18.4001 88.1 19.9584 90.8056 19.9584C91.9819 19.9584 92.8524 19.6279 93.4406 19.2501L92.6877 17.0307C92.3348 17.2432 91.8173 17.4084 91.0644 17.4084C89.9586 17.4084 89.2058 16.7001 89.2058 15.4959V10.2307H92.7819V7.82229H89.2058V3.83201ZM98.1584 7.82229H95.3352V19.7223H98.1584V7.82229ZM96.7468 2.27368C95.7587 2.27368 95.0058 3.00562 95.0058 4.0209C95.0058 5.03618 95.7587 5.76812 96.7468 5.76812C97.7585 5.76812 98.5113 5.03618 98.5113 4.0209C98.5113 3.00562 97.7585 2.27368 96.7468 2.27368ZM106.688 7.58618C103.041 7.58618 100.618 10.1834 100.618 13.7723C100.618 17.3376 103.065 19.9584 106.711 19.9584C108.852 19.9584 110.475 18.9904 111.534 17.3376L109.511 15.7557C108.946 16.7001 108.029 17.4793 106.735 17.4793C104.641 17.4793 103.488 15.8501 103.488 13.7723C103.488 11.6709 104.594 10.0654 106.711 10.0654C108.029 10.0654 108.899 10.8209 109.44 11.7654L111.487 10.2071C110.428 8.55424 108.852 7.58618 106.688 7.58618ZM118.44 7.58618C122.087 7.58618 123.875 10.3251 123.875 13.6543V14.6459H115.499C115.57 16.5348 116.699 17.5737 118.675 17.5737C120.063 17.5737 121.075 16.9598 121.616 16.2043L123.569 17.8098C122.392 19.2265 120.84 19.9584 118.652 19.9584C114.982 19.9584 112.629 17.3612 112.629 13.7959C112.629 10.2071 115.029 7.58618 118.44 7.58618ZM118.393 9.85285C116.723 9.85285 115.593 10.9626 115.499 12.6154H121.099C121.028 10.9862 120.087 9.85285 118.393 9.85285Z" fill="#0E0E29"/>
</g>
<defs>
<clipPath id="clip0_1_2232">
<rect width="124" height="23" fill="white"/>
</clipPath>
</defs>
</svg>

<svg xmlns="http://www.w3.org/2000/svg" width="345.043" height="64" fill="none" viewBox="0 0 124 23"><g fill-rule="evenodd" clip-path="url(#a)" clip-rule="evenodd"><path fill="#16B8A2" d="m9.578 16.422-5.496-5.52a2.384 2.384 0 0 0-3.382 0 2.41 2.41 0 0 0 0 3.397l7.187 7.22a2.384 2.384 0 0 0 3.382 0l6.765-6.796-3.382-3.398-5.074 5.097Z"/><path fill="#FFB41F" d="M30.29 5.806 19.722 16.422 9.152 5.804a2.383 2.383 0 0 0-3.381 0 2.41 2.41 0 0 0 0 3.398l12.26 12.316a2.384 2.384 0 0 0 3.382 0l12.26-12.315a2.41 2.41 0 0 0 0-3.397 2.384 2.384 0 0 0-3.383 0Z"/><path fill="#F56358" d="m38.75 14.3-7.185 7.218a2.383 2.383 0 0 1-3.382 0L10.849 4.105a2.41 2.41 0 0 1 0-3.397 2.383 2.383 0 0 1 3.382 0l15.643 15.714 5.494-5.52a2.384 2.384 0 0 1 3.382 0 2.41 2.41 0 0 1 0 3.398Z"/><path fill="#16B8A2" d="M28.598.709a2.384 2.384 0 0 0-3.382 0L14.648 11.325l3.382 3.398L28.598 4.107a2.41 2.41 0 0 0 0-3.398Z"/><path fill="#0E0E29" d="M51.831 2.368h-2.94v17.354h10.775v-2.62H51.83V2.368Zm14.2 5.218c1.788 0 2.987.732 3.646 1.63l.141-1.394h2.541v11.9h-2.54l-.142-1.393c-.659.898-1.858 1.63-3.647 1.63-3.223 0-5.41-2.621-5.41-6.187 0-3.589 2.187-6.186 5.41-6.186Zm.611 2.503c-1.835 0-3.152 1.44-3.152 3.683s1.317 3.684 3.152 3.684c1.412 0 2.259-.756 2.894-1.771V11.86c-.635-1.015-1.482-1.771-2.894-1.771Zm12.835-6.257h-2.823v3.99h-2.236v2.409h2.236v5.289c0 2.88 1.717 4.438 4.423 4.438 1.176 0 2.046-.33 2.635-.708l-.753-2.22c-.353.213-.87.378-1.624.378-1.105 0-1.858-.708-1.858-1.912V10.23h3.576V7.822h-3.576v-3.99Zm9.729 0h-2.823v3.99h-2.236v2.409h2.236v5.289c0 2.88 1.717 4.438 4.423 4.438 1.176 0 2.046-.33 2.635-.708l-.753-2.22c-.353.213-.87.378-1.624.378-1.105 0-1.858-.708-1.858-1.912V10.23h3.576V7.822h-3.576v-3.99Zm8.952 3.99h-2.823v11.9h2.823v-11.9Zm-1.411-5.548c-.988 0-1.741.732-1.741 1.747 0 1.015.753 1.747 1.74 1.747 1.013 0 1.765-.732 1.765-1.747 0-1.015-.752-1.747-1.764-1.747Zm9.941 5.312c-3.647 0-6.07 2.597-6.07 6.186 0 3.566 2.447 6.186 6.093 6.186 2.141 0 3.764-.968 4.823-2.62l-2.023-1.582c-.565.944-1.482 1.723-2.776 1.723-2.094 0-3.247-1.629-3.247-3.707 0-2.101 1.106-3.707 3.223-3.707 1.318 0 2.188.756 2.729 1.7l2.047-1.558c-1.059-1.653-2.635-2.62-4.799-2.62Zm11.752 0c3.647 0 5.435 2.74 5.435 6.068v.992h-8.376c.071 1.889 1.2 2.928 3.176 2.928 1.388 0 2.4-.614 2.941-1.37l1.953 1.606c-1.177 1.417-2.729 2.148-4.917 2.148-3.67 0-6.023-2.597-6.023-6.162 0-3.589 2.4-6.21 5.811-6.21Zm-.047 2.267c-1.67 0-2.8 1.11-2.894 2.762h5.6c-.071-1.629-1.012-2.762-2.706-2.762Z"/></g><defs><clipPath id="a"><path fill="#fff" d="M0 0h124v23H0z"/></clipPath></defs></svg>
